X:530
T:Maudabawn Chapel
C:Ed Reavy (1898-1988)
R:reel
Z:id:hn-reel-62
M:C|
K:Edor
EF|:~G3F E2DB,|G,A,B,D ~E2DB,|G,2B,D GABd|gabg efga|
~g3a bgag|gfed effe|d2 gd B=cdB|A=cBA GEEF:|
|:E2BE dEBE|EdcB ADFD|E2BE dEBE|A2FD A,DFD|
EBBA ~B3d|BAGA B^cde|fd~d2 gfe^c|dBAF GEED:|
